static/img/kroki/90148527c302cb139de4fff8a342b64b.svg

<?xml version="1.0" encoding="us-ascii" standalone="no"?><svg xmlns="http://www.w3.org/2000/svg" xmlns:xlink="http://www.w3.org/1999/xlink" contentStyleType="text/css" height="374px" preserveAspectRatio="none" style="width:534px;height:374px;" version="1.1" viewBox="0 0 534 374" width="534px" zoomAndPan="magnify"><defs/><g><!--class azure_security_server_vulnerability_assessments_setting--><g id="elem_azure_security_server_vulnerability_assessments_setting"><rect codeLine="23" fill="#3D176E" height="39.7891" id="azure_security_server_vulnerability_assessments_setting" rx="2.5" ry="2.5" style="stroke:#000D19;stroke-width:0.5;" width="520" x="7" y="328.58"/><ellipse cx="22" cy="348.4745" fill="#ADD1B2" rx="11" ry="11" style="stroke:#181818;stroke-width:1.0;"/><path d="M24.9688,354.1152 Q24.3906,354.412 23.75,354.5527 Q23.1094,354.7089 22.4063,354.7089 Q19.9063,354.7089 18.5781,353.0683 Q17.2656,351.412 17.2656,348.287 Q17.2656,345.162 18.5781,343.5058 Q19.9063,341.8495 22.4063,341.8495 Q23.1094,341.8495 23.75,342.0058 Q24.4063,342.162 24.9688,342.4589 L24.9688,345.1777 Q24.3438,344.5995 23.75,344.3339 Q23.1563,344.0527 22.5313,344.0527 Q21.1875,344.0527 20.5,345.1308 Q19.8125,346.1933 19.8125,348.287 Q19.8125,350.3808 20.5,351.4589 Q21.1875,352.5214 22.5313,352.5214 Q23.1563,352.5214 23.75,352.2558 Q24.3438,351.9745 24.9688,351.3964 L24.9688,354.1152 Z " fill="#000000"/><text fill="#D9B8FF" font-family="Helvetica" font-size="17" lengthAdjust="spacing" textLength="478" x="41" y="354.3598">azure_security_server_vulnerability_assessments_setting</text></g><!--class microsoft_resource--><g id="elem_microsoft_resource"><rect codeLine="26" fill="#3D176E" height="39.7891" id="microsoft_resource" rx="2.5" ry="2.5" style="stroke:#000D19;stroke-width:0.5;" width="200" x="167" y="167.79"/><ellipse cx="182" cy="187.6845" fill="#ADD1B2" rx="11" ry="11" style="stroke:#181818;stroke-width:1.0;"/><path d="M184.9688,193.3252 Q184.3906,193.622 183.75,193.7627 Q183.1094,193.9189 182.4063,193.9189 Q179.9063,193.9189 178.5781,192.2783 Q177.2656,190.622 177.2656,187.497 Q177.2656,184.372 178.5781,182.7158 Q179.9063,181.0595 182.4063,181.0595 Q183.1094,181.0595 183.75,181.2158 Q184.4063,181.372 184.9688,181.6689 L184.9688,184.3877 Q184.3438,183.8095 183.75,183.5439 Q183.1563,183.2627 182.5313,183.2627 Q181.1875,183.2627 180.5,184.3408 Q179.8125,185.4033 179.8125,187.497 Q179.8125,189.5908 180.5,190.6689 Q181.1875,191.7314 182.5313,191.7314 Q183.1563,191.7314 183.75,191.4658 Q184.3438,191.1845 184.9688,190.6064 L184.9688,193.3252 Z " fill="#000000"/><text fill="#D9B8FF" font-family="Helvetica" font-size="17" lengthAdjust="spacing" textLength="158" x="201" y="193.5698">microsoft_resource</text></g><!--class resource--><g id="elem_resource"><rect codeLine="29" fill="#3D176E" height="39.7891" id="resource" rx="2.5" ry="2.5" style="stroke:#000D19;stroke-width:0.5;" width="113" x="210.5" y="7"/><ellipse cx="225.5" cy="26.8945" fill="#ADD1B2" rx="11" ry="11" style="stroke:#181818;stroke-width:1.0;"/><path d="M228.4688,32.5352 Q227.8906,32.832 227.25,32.9727 Q226.6094,33.1289 225.9063,33.1289 Q223.4063,33.1289 222.0781,31.4883 Q220.7656,29.832 220.7656,26.707 Q220.7656,23.582 222.0781,21.9258 Q223.4063,20.2695 225.9063,20.2695 Q226.6094,20.2695 227.25,20.4258 Q227.9063,20.582 228.4688,20.8789 L228.4688,23.5977 Q227.8438,23.0195 227.25,22.7539 Q226.6563,22.4727 226.0313,22.4727 Q224.6875,22.4727 224,23.5508 Q223.3125,24.6133 223.3125,26.707 Q223.3125,28.8008 224,29.8789 Q224.6875,30.9414 226.0313,30.9414 Q226.6563,30.9414 227.25,30.6758 Q227.8438,30.3945 228.4688,29.8164 L228.4688,32.5352 Z " fill="#000000"/><text fill="#D9B8FF" font-family="Helvetica" font-size="17" lengthAdjust="spacing" textLength="71" x="244.5" y="32.7798">resource</text></g><!--reverse link microsoft_resource to azure_security_server_vulnerability_assessments_setting--><g id="link_microsoft_resource_azure_security_server_vulnerability_assessments_setting"><path codeLine="32" d="M267,225.84 C267,256.36 267,297.69 267,328.25 " fill="none" id="microsoft_resource-backto-azure_security_server_vulnerability_assessments_setting" style="stroke:#FFAF37;stroke-width:2.0;"/><polygon fill="none" points="267,207.84,261,225.84,273,225.84,267,207.84" style="stroke:#FFAF37;stroke-width:2.0;"/></g><!--reverse link resource to microsoft_resource--><g id="link_resource_microsoft_resource"><path codeLine="33" d="M267,65.05 C267,95.57 267,136.9 267,167.46 " fill="none" id="resource-backto-microsoft_resource" style="stroke:#FFAF37;stroke-width:2.0;"/><polygon fill="none" points="267,47.05,261,65.05,273,65.05,267,47.05" style="stroke:#FFAF37;stroke-width:2.0;"/></g><!--SRC=[dP9FQm8n4CNl-oa2dWMjj2hqea9fBr9gxpARJ3IuIMGogsZRxzvijINk-WTw2-_zUFDcoD8e56ZNl1CMROuKih0oRWq4Leo8_7RY2q-YfJNeNhzkFdd7Du4fM1JFM6oGZOGwyRuqSkKm176NM6EGgmNvqgb3F1Eu42rqd52J0a8OCPF9IyQaZ1hc0wthP3sqrLFT_WCsC4yAwOXqEXtL7TQHcwEkxlr7pCmUHJSzsjGpDcesHlnGLrjMH5AoiUYlVx7ZAoXbt4BS9zhReHCvf1DzjWJbjnMjeGZfcC18w7ctnabZAnmEbEwVXLykmPciJYTWNnBE0ygI3E_YWpP8yqrPn6QGcw8I8nS_bOqV9aI0kQhtaMLVnmXh9FdWDSy9Woz9OkgUQcVOnyzsk_tV7bajffcVVGC0]--></g></svg>

<svg xmlns="http://www.w3.org/2000/svg" width="534" height="374" viewBox="0 0 534 374"><rect width="520" height="39.789" x="7" y="328.58" fill="#3D176E" rx="2.5" ry="2.5" style="stroke:#000d19;stroke-width:.5"/><circle cx="22" cy="348.474" r="11" fill="#ADD1B2" style="stroke:#181818;stroke-width:1"/><path d="M24.969 354.115q-.578.297-1.219.438-.64.156-1.344.156-2.5 0-3.828-1.64-1.312-1.657-1.312-4.782t1.312-4.781q1.328-1.656 3.828-1.656.703 0 1.344.156.656.156 1.219.453v2.719q-.625-.579-1.219-.844-.594-.281-1.219-.281-1.343 0-2.031 1.078-.687 1.062-.687 3.156t.687 3.172q.688 1.062 2.031 1.062.625 0 1.219-.265.594-.281 1.219-.86z"/><text x="41" y="354.36" fill="#D9B8FF" font-family="Helvetica" font-size="17" textLength="478">azure_security_server_vulnerability_assessments_setting</text><rect width="200" height="39.789" x="167" y="167.79" fill="#3D176E" rx="2.5" ry="2.5" style="stroke:#000d19;stroke-width:.5"/><circle cx="182" cy="187.685" r="11" fill="#ADD1B2" style="stroke:#181818;stroke-width:1"/><path d="M184.969 193.325q-.578.297-1.219.438-.64.156-1.344.156-2.5 0-3.828-1.64-1.312-1.657-1.312-4.782t1.312-4.781q1.328-1.656 3.828-1.656.703 0 1.344.156.656.156 1.219.453v2.719q-.625-.578-1.219-.844-.594-.281-1.219-.281-1.344 0-2.031 1.078-.687 1.062-.687 3.156t.687 3.172q.688 1.062 2.031 1.062.625 0 1.219-.265.594-.281 1.219-.86z"/><text x="201" y="193.57" fill="#D9B8FF" font-family="Helvetica" font-size="17" textLength="158">microsoft_resource</text><rect width="113" height="39.789" x="210.5" y="7" fill="#3D176E" rx="2.5" ry="2.5" style="stroke:#000d19;stroke-width:.5"/><circle cx="225.5" cy="26.895" r="11" fill="#ADD1B2" style="stroke:#181818;stroke-width:1"/><path d="M228.469 32.535q-.578.297-1.219.438-.64.156-1.344.156-2.5 0-3.828-1.64-1.312-1.657-1.312-4.782t1.312-4.781q1.328-1.656 3.828-1.656.703 0 1.344.156.656.156 1.219.453v2.719q-.625-.578-1.219-.844-.594-.281-1.219-.281-1.344 0-2.031 1.078-.687 1.062-.687 3.156t.687 3.172q.688 1.062 2.031 1.062.625 0 1.219-.265.594-.281 1.219-.86z"/><text x="244.5" y="32.78" fill="#D9B8FF" font-family="Helvetica" font-size="17" textLength="71">resource</text><path fill="none" d="M267 225.84v102.41m0-120.41-6 18h12zm0-142.79v102.41m0-120.41-6 18h12z" style="stroke:#ffaf37;stroke-width:2"/></svg>
